svgs/light/pen-swirl.svg

<svg xmlns="http://www.w3.org/2000/svg" viewBox="0 0 512 512"><!--! Font Awesome Pro 6.3.0 by @fontawesome - https://fontawesome.com License - https://fontawesome.com/license (Commercial License) Copyright 2023 Fonticons, Inc. --><path d="M386.7 23.11C411.6-2.142 452.4-2.267 477.5 22.83L489.4 34.75C514.4 59.74 514.4 100.3 489.4 125.3L296.9 317.8C288.1 326.6 276.9 332.7 264.8 335.2L179.3 353.2C173.1 354.3 168.5 352.6 164.7 348.8C160.9 344.1 159.2 339.5 160.3 334.2L178.3 248.6C180.8 236.5 186.8 225.5 195.4 216.7L386.7 23.11zM454.8 45.46C442.3 32.91 421.9 32.97 409.4 45.6L382.1 72.37L440 129.4L466.8 102.6C479.3 90.13 479.2 69.87 466.8 57.38L454.8 45.46zM209.6 255.1L196.7 316.8L258.2 303.9C264.3 302.6 269.9 299.6 274.3 295.2L417.4 152L360.5 95.14L218.2 239.2C213.9 243.6 210.9 249.1 209.6 255.1L209.6 255.1zM301.1 52.89C286.5 49.69 271.5 48 256 48C141.1 48 48 141.1 48 256C48 370.9 141.1 464 256 464C264.8 464 272 471.2 272 480C272 488.8 264.8 496 256 496C123.5 496 16 388.5 16 256C16 123.5 123.5 16 256 16C280.7 16 304.5 19.73 326.1 26.67L301.1 52.89zM496 256C496 335.5 431.5 400 352 400C339.6 400 327.5 398.4 316 395.5C307.5 393.3 302.3 384.5 304.5 375.1C306.7 367.4 315.4 362.3 323.1 364.5C332.9 366.8 342.3 368 352 368C413.9 368 464 317.9 464 256C464 240.9 462.4 226.1 459.3 211.9L485.5 185.7C492.3 207.9 496 231.5 496 256V256z"/></svg>

<svg xmlns="http://www.w3.org/2000/svg" viewBox="0 0 512 512"><!--! Font Awesome Pro 6.4.0 by @fontawesome - https://fontawesome.com License - https://fontawesome.com/license (Commercial License) Copyright 2023 Fonticons, Inc. --><path d="M454.8 45.5c-12.6-12.6-32.9-12.5-45.4 .1L383 72.4l57 57 26.7-26.8c12.5-12.5 12.5-32.8 0-45.2L454.8 45.5zM218.2 239.2c-4.3 4.4-7.3 9.9-8.6 15.9l-12.9 61.7 61.5-12.9c6.1-1.3 11.7-4.3 16.1-8.7L417.4 152 360.5 95.1 218.2 239.2zM386.7 23.1c24.9-25.3 65.7-25.4 90.8-.3l11.9 11.9c25 25 25 65.5 0 90.5L296.9 317.8c-8.8 8.8-20 14.8-32.1 17.4l-85.5 17.9c-5.3 1.1-10.8-.5-14.6-4.3s-5.5-9.3-4.3-14.6l18-85.7c2.5-12 8.5-23.1 17.1-31.8L386.7 23.1zM301.1 52.9C286.5 49.7 271.5 48 256 48C141.1 48 48 141.1 48 256s93.1 208 208 208c8.8 0 16 7.2 16 16s-7.2 16-16 16C123.5 496 16 388.5 16 256S123.5 16 256 16c24.7 0 48.5 3.7 71 10.7L301.1 52.9zM485.5 185.7c6.8 22.2 10.5 45.8 10.5 70.3c0 79.5-64.5 144-144 144c-12.4 0-24.5-1.6-36-4.5c-8.6-2.2-13.7-10.9-11.5-19.5s10.9-13.7 19.5-11.5c8.9 2.3 18.3 3.5 28 3.5c61.9 0 112-50.1 112-112c0-15.1-1.6-29.9-4.7-44.1l26.2-26.2z"/></svg>
